FINK
CUT[ES TRITT DER LENZ ZUR ROSE HIN]
REG[Europa, Mitteleuropa, Deutschland]
KEY[F0992  08  A 4/4]
MEL[-5_  1_1_2_2_  3_.21_
    3_  2_5_4#_2_  5__0_
    -5_  4_.32_2_  5_.43_
    1_  4_4_5_5_  6__0_
    6_  5_3_2_5_  1__0_ //] >>
FCT[Natur -, Jahreszeiten - Lied, Fruehling]
